note-multiple-outline.svg

<svg fill="currentColor" viewBox="0 0 24 24"><path d="M3 6v16h18v2H3a2 2 0 0 1-2-2V6zm13 3h5.5L16 3.5zM7 2h10l6 6v10a2 2 0 0 1-2 2H7a2 2 0 0 1-2-2V4a2 2 0 0 1 2-2m0 2v14h14v-7h-7V4z"/></svg>

<svg  viewBox="0 0 24 24" fill="currentColor"><path  d="M3,6V22H21V24H3A2,2 0 0,1 1,22V6H3M16,9H21.5L16,3.5V9M7,2H17L23,8V18A2,2 0 0,1 21,20H7C5.89,20 5,19.1 5,18V4A2,2 0 0,1 7,2M7,4V18H21V11H14V4H7Z"/></svg>
